lib/flags/mq-martinique.svg

<svg xmlns="http://www.w3.org/2000/svg" fill="none" aria-hidden="true" viewBox="0 0 42 30"><g id="Country=MQ - Martinique, Size=sm (36x24)" filter="url(#filter0_dd_91_26377)"><g clip-path="url(#clip0_91_26377)"><g id="flag"><rect id="bg" width="36" height="24" x="3" y="2" fill="#21428E"/><path id="cross" fill="#F7FCFF" fill-rule="evenodd" d="M18.75 2H23.25V12H39V16H23.25V26H18.75V16H3V12H18.75V2Z" clip-rule="evenodd"/><path id="snake" fill="white" fill-rule="evenodd" d="M8.43281 3.34879C8.43281 3.38761 8.46303 3.41196 8.48645 3.43083C8.52584 3.46257 8.54599 3.4788 8.3707 3.52234C8.10672 3.59176 7.39243 3.68433 6.89553 3.67276C6.80052 3.67276 6.63344 3.6477 6.48515 3.62546L6.48515 3.62545L6.48515 3.62545C6.36686 3.60771 6.26053 3.59176 6.2123 3.59176C6.14729 3.59782 6.29489 3.65457 6.41478 3.70066C6.52401 3.74266 6.61024 3.77581 6.4918 3.75375C6.15019 3.68433 5.94832 3.66119 6.2123 3.78846C6.41416 3.88102 6.86448 3.88102 7.50113 3.82317C7.63152 3.81103 7.8731 3.77658 8.10693 3.74323C8.31864 3.71304 8.52399 3.68375 8.63468 3.67276C8.72382 3.66612 8.76178 3.6976 8.79558 3.72563C8.82066 3.74643 8.84344 3.76532 8.88312 3.76532C9.72164 3.80003 11.2123 3.77689 11.8645 3.70747C12.408 3.64962 12.6099 3.67276 12.7651 3.8116C13.0757 4.07772 12.7496 4.30913 11.8645 4.44797C10.7775 4.62153 10.3272 4.77194 9.90798 5.10749C8.89865 5.91741 10.0788 6.83147 12.2838 6.95875C13.5726 7.03974 14.4111 7.22487 14.2092 7.37528C14.1316 7.43313 13.2776 7.5257 12.2993 7.58355C10.172 7.71082 9.22474 7.93066 8.41728 8.50918C7.96697 8.83315 7.81169 9.02985 7.81169 9.29597C7.81169 9.43293 7.81169 9.51923 7.77002 9.57361C7.69906 9.66622 7.50724 9.66622 6.98871 9.66622H6.9887C6.55392 9.66622 5.94832 9.61994 5.66882 9.55051C5.23403 9.46952 5.17192 9.46952 5.3272 9.60837C5.63776 9.88606 6.52286 10.129 7.25268 10.129C7.81169 10.129 8.12225 10.21 8.61915 10.4761C9.61294 11.02 10.7465 11.2282 12.6254 11.2167C15.0943 11.2051 16.5074 10.7191 16.5074 9.89763C16.5074 9.2844 15.5757 8.92571 13.6347 8.79844C12.6564 8.72902 10.731 8.84472 9.89245 9.02985C9.73717 9.06456 9.90798 8.98357 10.2806 8.84472C10.731 8.68274 11.4763 8.56703 12.4856 8.49761C14.7217 8.35876 15.731 7.98851 15.731 7.29429C15.731 6.62321 14.7372 6.24138 12.6099 6.09097C10.5136 5.95212 10.3583 5.67443 12.1285 5.26947C13.3863 4.99178 14.0229 4.57525 14.0229 4.0083C14.0229 3.14052 13.3863 2.85126 11.2589 2.77027C9.97009 2.72399 9.65953 2.74713 9.10052 2.94382C8.72784 3.0711 8.43281 3.25622 8.43281 3.34879ZM10.2761 3.25803C10.2036 3.36387 10.0101 3.46971 9.88923 3.46971C9.74413 3.46971 9.71995 3.36387 9.7925 3.25803C9.86504 3.13103 10.0585 3.04636 10.1794 3.04636C10.3245 3.04636 10.3487 3.13103 10.2761 3.25803ZM11.8125 10.3574C12.8396 10.424 14.5261 10.224 14.7867 9.99739C14.8787 9.91739 14.2455 9.71078 13.9542 9.61745C12.9113 9.37481 10.8466 9.46407 9.81943 9.81073C9.45148 9.94406 10.678 10.264 11.8125 10.3574Z" clip-rule="evenodd"/><path id="snake_2" fill="white" fill-rule="evenodd" d="M8.43281 17.3488C8.43281 17.3876 8.46303 17.412 8.48645 17.4308C8.52584 17.4626 8.54599 17.4788 8.3707 17.5223C8.10672 17.5918 7.39243 17.6843 6.89553 17.6728C6.80052 17.6728 6.63344 17.6477 6.48515 17.6255L6.48515 17.6255L6.48515 17.6255C6.36686 17.6077 6.26053 17.5918 6.2123 17.5918C6.14729 17.5978 6.29489 17.6546 6.41478 17.7007C6.52401 17.7427 6.61024 17.7758 6.4918 17.7537C6.15019 17.6843 5.94832 17.6612 6.2123 17.7885C6.41416 17.881 6.86448 17.881 7.50113 17.8232C7.63152 17.811 7.8731 17.7766 8.10693 17.7432C8.31864 17.713 8.52399 17.6838 8.63468 17.6728C8.72382 17.6661 8.76178 17.6976 8.79558 17.7256C8.82066 17.7464 8.84344 17.7653 8.88312 17.7653C9.72164 17.8 11.2123 17.7769 11.8645 17.7075C12.408 17.6496 12.6099 17.6728 12.7651 17.8116C13.0757 18.0777 12.7496 18.3091 11.8645 18.448C10.7775 18.6215 10.3272 18.7719 9.90798 19.1075C8.89865 19.9174 10.0788 20.8315 12.2838 20.9587C13.5726 21.0397 14.4111 21.2249 14.2092 21.3753C14.1316 21.4331 13.2776 21.5257 12.2993 21.5835C10.172 21.7108 9.22474 21.9307 8.41728 22.5092C7.96697 22.8332 7.81169 23.0298 7.81169 23.296C7.81169 23.4329 7.81169 23.5192 7.77002 23.5736C7.69906 23.6662 7.50724 23.6662 6.98871 23.6662H6.9887C6.55392 23.6662 5.94832 23.6199 5.66882 23.5505C5.23403 23.4695 5.17192 23.4695 5.3272 23.6084C5.63776 23.8861 6.52286 24.129 7.25268 24.129C7.81169 24.129 8.12225 24.21 8.61915 24.4761C9.61294 25.02 10.7465 25.2282 12.6254 25.2167C15.0943 25.2051 16.5074 24.7191 16.5074 23.8976C16.5074 23.2844 15.5757 22.9257 13.6347 22.7984C12.6564 22.729 10.731 22.8447 9.89245 23.0298C9.73717 23.0646 9.90798 22.9836 10.2806 22.8447C10.731 22.6827 11.4763 22.567 12.4856 22.4976C14.7217 22.3588 15.731 21.9885 15.731 21.2943C15.731 20.6232 14.7372 20.2414 12.6099 20.091C10.5136 19.9521 10.3583 19.6744 12.1285 19.2695C13.3863 18.9918 14.0229 18.5752 14.0229 18.0083C14.0229 17.1405 13.3863 16.8513 11.2589 16.7703C9.97009 16.724 9.65953 16.7471 9.10052 16.9438C8.72784 17.0711 8.43281 17.2562 8.43281 17.3488ZM10.2761 17.258C10.2036 17.3639 10.0101 17.4697 9.88923 17.4697C9.74413 17.4697 9.71995 17.3639 9.7925 17.258C9.86504 17.131 10.0585 17.0464 10.1794 17.0464C10.3245 17.0464 10.3487 17.131 10.2761 17.258ZM11.8125 24.3574C12.8396 24.424 14.5261 24.224 14.7867 23.9974C14.8787 23.9174 14.2455 23.7108 13.9542 23.6174C12.9113 23.3748 10.8466 23.4641 9.81943 23.8107C9.45148 23.9441 10.678 24.264 11.8125 24.3574Z" clip-rule="evenodd"/><path id="snake_3" fill="white" fill-rule="evenodd" d="M28.6755 3.34879C28.6755 3.38761 28.7057 3.41196 28.7291 3.43083C28.7685 3.46257 28.7887 3.4788 28.6134 3.52234C28.3494 3.59176 27.6351 3.68433 27.1382 3.67276C27.0432 3.67276 26.8761 3.6477 26.7278 3.62546L26.7278 3.62545L26.7278 3.62545C26.6095 3.60771 26.5032 3.59176 26.455 3.59176C26.39 3.59782 26.5376 3.65457 26.6575 3.70066C26.7667 3.74266 26.8529 3.77581 26.7345 3.75375C26.3929 3.68433 26.191 3.66119 26.455 3.78846C26.6568 3.88102 27.1072 3.88102 27.7438 3.82317C27.8742 3.81103 28.1158 3.77658 28.3496 3.74323C28.5613 3.71304 28.7667 3.68375 28.8774 3.67276C28.9665 3.66612 29.0045 3.6976 29.0383 3.72563C29.0633 3.74643 29.0861 3.76532 29.1258 3.76532C29.9643 3.80003 31.455 3.77689 32.1072 3.70747C32.6507 3.64962 32.8525 3.67276 33.0078 3.8116C33.3184 4.07772 32.9923 4.30913 32.1072 4.44797C31.0202 4.62153 30.5699 4.77194 30.1507 5.10749C29.1413 5.91741 30.3215 6.83147 32.5264 6.95875C33.8153 7.03974 34.6538 7.22487 34.4519 7.37528C34.3743 7.43313 33.5202 7.5257 32.542 7.58355C30.4146 7.71082 29.4674 7.93066 28.66 8.50918C28.2096 8.83315 28.0544 9.02985 28.0544 9.29597C28.0544 9.43293 28.0544 9.51923 28.0127 9.57361C27.9417 9.66622 27.7499 9.66622 27.2314 9.66622H27.2314C26.7966 9.66622 26.191 9.61994 25.9115 9.55051C25.4767 9.46952 25.4146 9.46952 25.5699 9.60837C25.8804 9.88606 26.7655 10.129 27.4954 10.129C28.0544 10.129 28.3649 10.21 28.8618 10.4761C29.8556 11.02 30.9892 11.2282 32.8681 11.2167C35.337 11.2051 36.7501 10.7191 36.7501 9.89763C36.7501 9.2844 35.8184 8.92571 33.8774 8.79844C32.8991 8.72902 30.9736 8.84472 30.1351 9.02985C29.9798 9.06456 30.1507 8.98357 30.5233 8.84472C30.9736 8.68274 31.719 8.56703 32.7283 8.49761C34.9644 8.35876 35.9737 7.98851 35.9737 7.29429C35.9737 6.62321 34.9799 6.24138 32.8525 6.09097C30.7562 5.95212 30.601 5.67443 32.3712 5.26947C33.6289 4.99178 34.2656 4.57525 34.2656 4.0083C34.2656 3.14052 33.6289 2.85126 31.5016 2.77027C30.2128 2.72399 29.9022 2.74713 29.3432 2.94382C28.9705 3.0711 28.6755 3.25622 28.6755 3.34879ZM30.5188 3.25803C30.4463 3.36387 30.2528 3.46971 30.1319 3.46971C29.9868 3.46971 29.9627 3.36387 30.0352 3.25803C30.1078 3.13103 30.3012 3.04636 30.4221 3.04636C30.5672 3.04636 30.5914 3.13103 30.5188 3.25803ZM32.0552 10.3574C33.0823 10.424 34.7688 10.224 35.0294 9.99739C35.1214 9.91739 34.4882 9.71078 34.1969 9.61745C33.154 9.37481 31.0893 9.46407 30.0621 9.81073C29.6942 9.94406 30.9207 10.264 32.0552 10.3574Z" clip-rule="evenodd"/><path id="snake_4" fill="white" fill-rule="evenodd" d="M28.6755 17.3488C28.6755 17.3876 28.7057 17.412 28.7291 17.4308C28.7685 17.4626 28.7887 17.4788 28.6134 17.5223C28.3494 17.5918 27.6351 17.6843 27.1382 17.6728C27.0432 17.6728 26.8761 17.6477 26.7278 17.6255L26.7278 17.6255L26.7278 17.6255C26.6095 17.6077 26.5032 17.5918 26.455 17.5918C26.39 17.5978 26.5376 17.6546 26.6575 17.7007C26.7667 17.7427 26.8529 17.7758 26.7345 17.7537C26.3929 17.6843 26.191 17.6612 26.455 17.7885C26.6568 17.881 27.1072 17.881 27.7438 17.8232C27.8742 17.811 28.1158 17.7766 28.3496 17.7432C28.5613 17.713 28.7667 17.6838 28.8774 17.6728C28.9665 17.6661 29.0045 17.6976 29.0383 17.7256C29.0633 17.7464 29.0861 17.7653 29.1258 17.7653C29.9643 17.8 31.455 17.7769 32.1072 17.7075C32.6507 17.6496 32.8525 17.6728 33.0078 17.8116C33.3184 18.0777 32.9923 18.3091 32.1072 18.448C31.0202 18.6215 30.5699 18.7719 30.1507 19.1075C29.1413 19.9174 30.3215 20.8315 32.5264 20.9587C33.8153 21.0397 34.6538 21.2249 34.4519 21.3753C34.3743 21.4331 33.5202 21.5257 32.542 21.5835C30.4146 21.7108 29.4674 21.9307 28.66 22.5092C28.2096 22.8332 28.0544 23.0298 28.0544 23.296C28.0544 23.4329 28.0544 23.5192 28.0127 23.5736C27.9417 23.6662 27.7499 23.6662 27.2314 23.6662H27.2314C26.7966 23.6662 26.191 23.6199 25.9115 23.5505C25.4767 23.4695 25.4146 23.4695 25.5699 23.6084C25.8804 23.8861 26.7655 24.129 27.4954 24.129C28.0544 24.129 28.3649 24.21 28.8618 24.4761C29.8556 25.02 30.9892 25.2282 32.8681 25.2167C35.337 25.2051 36.7501 24.7191 36.7501 23.8976C36.7501 23.2844 35.8184 22.9257 33.8774 22.7984C32.8991 22.729 30.9736 22.8447 30.1351 23.0298C29.9798 23.0646 30.1507 22.9836 30.5233 22.8447C30.9736 22.6827 31.719 22.567 32.7283 22.4976C34.9644 22.3588 35.9737 21.9885 35.9737 21.2943C35.9737 20.6232 34.9799 20.2414 32.8525 20.091C30.7562 19.9521 30.601 19.6744 32.3712 19.2695C33.6289 18.9918 34.2656 18.5752 34.2656 18.0083C34.2656 17.1405 33.6289 16.8513 31.5016 16.7703C30.2128 16.724 29.9022 16.7471 29.3432 16.9438C28.9705 17.0711 28.6755 17.2562 28.6755 17.3488ZM30.5188 17.258C30.4463 17.3639 30.2528 17.4697 30.1319 17.4697C29.9868 17.4697 29.9627 17.3639 30.0352 17.258C30.1078 17.131 30.3012 17.0464 30.4221 17.0464C30.5672 17.0464 30.5914 17.131 30.5188 17.258ZM32.0552 24.3574C33.0823 24.424 34.7688 24.224 35.0294 23.9974C35.1214 23.9174 34.4882 23.7108 34.1969 23.6174C33.154 23.3748 31.0893 23.4641 30.0621 23.8107C29.6942 23.9441 30.9207 24.264 32.0552 24.3574Z" clip-rule="evenodd"/></g></g></g><defs><filter id="filter0_dd_91_26377" width="42" height="30" x="0" y="0" color-interpolation-filters="sRGB" filterUnits="userSpaceOnUse"><feFlood flood-opacity="0" result="BackgroundImageFix"/><feColorMatrix in="SourceAlpha" result="hardAlpha" values="0 0 0 0 0 0 0 0 0 0 0 0 0 0 0 0 0 0 127 0"/><feOffset dy="1"/><feGaussianBlur stdDeviation="1"/><feColorMatrix values="0 0 0 0 0.0627451 0 0 0 0 0.0941176 0 0 0 0 0.156863 0 0 0 0.06 0"/><feBlend in2="BackgroundImageFix" result="effect1_dropShadow_91_26377"/><feColorMatrix in="SourceAlpha" result="hardAlpha" values="0 0 0 0 0 0 0 0 0 0 0 0 0 0 0 0 0 0 127 0"/><feOffset dy="1"/><feGaussianBlur stdDeviation="1.5"/><feColorMatrix values="0 0 0 0 0.0627451 0 0 0 0 0.0941176 0 0 0 0 0.156863 0 0 0 0.1 0"/><feBlend in2="effect1_dropShadow_91_26377" result="effect2_dropShadow_91_26377"/><feBlend in="SourceGraphic" in2="effect2_dropShadow_91_26377" result="shape"/></filter><clipPath id="clip0_91_26377"><rect width="36" height="24" x="3" y="2" fill="white" rx="2"/></clipPath></defs></svg>

<svg xmlns="http://www.w3.org/2000/svg" fill="none" aria-hidden="true" viewBox="0 0 42 30"><g filter="url(#a)"><g clip-path="url(#b)"><path fill="#21428E" d="M3 2h36v24H3z"/><path fill="#F7FCFF" fill-rule="evenodd" d="M18.75 2h4.5v10H39v4H23.25v10h-4.5V16H3v-4h15.75V2Z" clip-rule="evenodd"/><path fill="#fff" fill-rule="evenodd" d="M8.433 3.349c0 .039.03.063.053.082.04.032.06.048-.115.091-.264.07-.979.162-1.475.15-.095 0-.263-.024-.41-.047-.12-.017-.225-.033-.274-.033-.065.006.083.063.203.109.109.042.195.075.077.053-.342-.07-.544-.093-.28.034.202.093.652.093 1.29.035.13-.012.371-.046.605-.08.212-.03.417-.06.528-.07a.19.19 0 0 1 .16.053c.026.02.048.04.088.04.839.034 2.33.01 2.982-.059.543-.057.745-.034.9.105.31.266-.015.497-.9.636-1.088.174-1.538.324-1.957.66-1.01.81.17 1.723 2.376 1.85 1.289.082 2.127.267 1.925.417-.077.058-.931.15-1.91.209-2.127.127-3.074.347-3.882.925-.45.324-.605.52-.605.787 0 .137 0 .223-.042.278-.07.092-.263.092-.781.092-.435 0-1.04-.046-1.32-.115-.435-.081-.497-.081-.342.057.31.278 1.196.521 1.926.521.559 0 .87.081 1.366.347.994.544 2.127.752 4.006.74 2.47-.01 3.882-.497 3.882-1.318 0-.614-.931-.972-2.872-1.1-.979-.069-2.904.047-3.743.232-.155.035.016-.046.389-.185.45-.162 1.195-.278 2.205-.347 2.236-.14 3.245-.51 3.245-1.204 0-.67-.994-1.053-3.121-1.203-2.096-.139-2.252-.417-.481-.822 1.257-.277 1.894-.694 1.894-1.26 0-.868-.637-1.158-2.764-1.239-1.289-.046-1.6-.023-2.158.174-.373.127-.668.312-.668.405Zm1.843-.091a.58.58 0 0 1-.387.212c-.145 0-.169-.106-.096-.212.072-.127.266-.212.386-.212.146 0 .17.085.097.212Zm1.537 7.1c1.027.066 2.713-.134 2.974-.36.092-.08-.542-.287-.833-.38-1.043-.243-3.107-.154-4.135.193-.368.133.859.453 1.993.546Zm-3.38 6.991c0 .039.03.063.053.082.04.032.06.048-.115.091-.264.07-.979.162-1.475.15-.095 0-.263-.024-.41-.047a2.671 2.671 0 0 0-.274-.033c-.065.006.083.063.203.109.109.042.195.075.077.053-.342-.07-.544-.093-.28.034.202.093.652.093 1.29.035.13-.012.371-.046.605-.08.212-.03.417-.06.528-.07a.19.19 0 0 1 .16.053c.026.02.048.04.088.04.839.034 2.33.01 2.982-.058.543-.058.745-.035.9.104.31.266-.015.497-.9.636-1.088.174-1.538.324-1.957.66-1.01.81.17 1.723 2.376 1.85 1.289.082 2.127.267 1.925.417-.077.058-.931.15-1.91.209-2.127.127-3.074.347-3.882.925-.45.324-.605.52-.605.787 0 .137 0 .223-.042.278-.07.092-.263.092-.781.092-.435 0-1.04-.046-1.32-.116-.435-.08-.497-.08-.342.058.31.278 1.196.521 1.926.521.559 0 .87.081 1.366.347.994.544 2.127.752 4.006.74 2.47-.01 3.882-.497 3.882-1.318 0-.614-.931-.972-2.872-1.1-.979-.069-2.904.047-3.743.232-.155.035.016-.046.389-.185.45-.162 1.195-.278 2.205-.347 2.236-.14 3.245-.51 3.245-1.204 0-.67-.994-1.053-3.121-1.203-2.096-.139-2.252-.417-.481-.822 1.257-.277 1.894-.694 1.894-1.26 0-.869-.637-1.158-2.764-1.239-1.289-.046-1.6-.023-2.158.174-.373.127-.668.312-.668.405Zm1.843-.091a.58.58 0 0 1-.387.212c-.145 0-.169-.106-.096-.212.072-.127.266-.212.386-.212.146 0 .17.085.097.212Zm1.537 7.1c1.027.066 2.713-.134 2.974-.36.092-.08-.542-.287-.833-.38-1.043-.243-3.107-.154-4.135.193-.368.133.859.453 1.993.546ZM28.675 3.349c0 .039.03.063.054.082.04.032.06.048-.116.091-.264.07-.978.162-1.475.15-.095 0-.262-.024-.41-.047-.119-.017-.225-.033-.273-.033-.065.006.083.063.203.109.109.042.195.075.076.053-.341-.07-.543-.093-.279.034.202.093.652.093 1.289.035.13-.012.372-.046.606-.08.211-.03.417-.06.527-.07a.194.194 0 0 1 .161.053c.025.02.048.04.088.04.838.034 2.329.01 2.981-.059.544-.057.745-.034.9.105.311.266-.015.497-.9.636-1.087.174-1.537.324-1.956.66-1.01.81.17 1.723 2.375 1.85 1.29.082 2.128.267 1.926.417-.078.058-.932.15-1.91.209-2.127.127-3.075.347-3.882.925-.45.324-.606.52-.606.787 0 .137 0 .223-.041.278-.071.092-.263.092-.782.092-.434 0-1.04-.046-1.32-.115-.434-.081-.496-.081-.341.057.31.278 1.195.521 1.925.521.56 0 .87.081 1.367.347.994.544 2.127.752 4.006.74 2.469-.01 3.882-.497 3.882-1.318 0-.614-.932-.972-2.873-1.1-.978-.069-2.903.047-3.742.232-.155.035.016-.046.388-.185.45-.162 1.196-.278 2.205-.347 2.236-.14 3.246-.51 3.246-1.204 0-.67-.994-1.053-3.121-1.203-2.097-.139-2.252-.417-.482-.822 1.258-.277 1.895-.694 1.895-1.26 0-.868-.637-1.158-2.764-1.239-1.29-.046-1.6-.023-2.159.174-.372.127-.668.312-.668.405Zm1.844-.091a.58.58 0 0 1-.387.212c-.145 0-.17-.106-.097-.212.073-.127.266-.212.387-.212.145 0 .17.085.097.212Zm1.536 7.1c1.027.066 2.714-.134 2.974-.36.092-.08-.54-.287-.832-.38-1.043-.243-3.108-.154-4.135.193-.368.133.859.453 1.993.546Zm-3.38 6.991c0 .039.03.063.054.082.04.032.06.048-.116.091-.264.07-.978.162-1.475.15-.095 0-.262-.024-.41-.047a2.672 2.672 0 0 0-.273-.033c-.065.006.083.063.203.109.109.042.195.075.076.053-.341-.07-.543-.093-.279.034.202.093.652.093 1.289.035.13-.012.372-.046.606-.08.211-.03.417-.06.527-.07a.19.19 0 0 1 .161.053c.025.02.048.04.088.04.838.034 2.329.01 2.981-.058.544-.058.745-.035.9.104.311.266-.015.497-.9.636-1.087.174-1.537.324-1.956.66-1.01.81.17 1.723 2.375 1.85 1.29.082 2.128.267 1.926.417-.078.058-.932.15-1.91.209-2.127.127-3.075.347-3.882.925-.45.324-.606.52-.606.787 0 .137 0 .223-.041.278-.071.092-.263.092-.782.092-.434 0-1.04-.046-1.32-.116-.434-.08-.496-.08-.341.058.31.278 1.195.521 1.925.521.56 0 .87.081 1.367.347.994.544 2.127.752 4.006.74 2.469-.01 3.882-.497 3.882-1.318 0-.614-.932-.972-2.873-1.1-.978-.069-2.903.047-3.742.232-.155.035.016-.046.388-.185.45-.162 1.196-.278 2.205-.347 2.236-.14 3.246-.51 3.246-1.204 0-.67-.994-1.053-3.121-1.203-2.097-.139-2.252-.417-.482-.822 1.258-.277 1.895-.694 1.895-1.26 0-.869-.637-1.158-2.764-1.239-1.29-.046-1.6-.023-2.159.174-.372.127-.668.312-.668.405Zm1.844-.091a.58.58 0 0 1-.387.212c-.145 0-.17-.106-.097-.212.073-.127.266-.212.387-.212.145 0 .17.085.097.212Zm1.536 7.1c1.027.066 2.714-.134 2.974-.36.092-.08-.54-.287-.832-.38-1.043-.243-3.108-.154-4.135.193-.368.133.859.453 1.993.546Z" clip-rule="evenodd"/></g></g><defs><clipPath id="b"><rect width="36" height="24" x="3" y="2" fill="#fff" rx="2"/></clipPath><filter id="a" width="42" height="30" x="0" y="0" color-interpolation-filters="sRGB" filterUnits="userSpaceOnUse"><feFlood flood-opacity="0" result="BackgroundImageFix"/><feColorMatrix in="SourceAlpha" result="hardAlpha" values="0 0 0 0 0 0 0 0 0 0 0 0 0 0 0 0 0 0 127 0"/><feOffset dy="1"/><feGaussianBlur stdDeviation="1"/><feColorMatrix values="0 0 0 0 0.0627451 0 0 0 0 0.0941176 0 0 0 0 0.156863 0 0 0 0.06 0"/><feBlend in2="BackgroundImageFix" result="effect1_dropShadow_91_26377"/><feColorMatrix in="SourceAlpha" result="hardAlpha" values="0 0 0 0 0 0 0 0 0 0 0 0 0 0 0 0 0 0 127 0"/><feOffset dy="1"/><feGaussianBlur stdDeviation="1.5"/><feColorMatrix values="0 0 0 0 0.0627451 0 0 0 0 0.0941176 0 0 0 0 0.156863 0 0 0 0.1 0"/><feBlend in2="effect1_dropShadow_91_26377" result="effect2_dropShadow_91_26377"/><feBlend in="SourceGraphic" in2="effect2_dropShadow_91_26377" result="shape"/></filter></defs></svg>
